rospo-icon-theme-classic-common/48x48/apps/aegisub.svg

<svg height="48" width="48" xmlns="http://www.w3.org/2000/svg"><path d="m13.630008 6.6222498a4.7736627 4.8172081 10.871574 0 0 -1.850248 1.8204659l-8.135855 14.1835063a4.7736627 4.8172081 10.871574 0 0 -.008 4.816134l8.089072 14.156826a4.7736627 4.8172081 10.871574 0 0 4.131445 2.400811l16.224612-.02723a4.7736627 4.8172081 10.871574 0 0 4.139467-2.414851l8.135644-14.183874a4.7736627 4.8172081 10.871574 0 0  .0079-4.816134l-8.088972-14.1568252a4.7736627 4.8172081 10.871574 0 0 -4.131835-2.4010715l-16.224403.027597a4.7736627 4.8172081 10.871574 0 0 -2.28958.5945966z" opacity=".2"/><path d="m13.630008 5.6222496a4.7736627 4.8172081 10.871574 0 0 -1.850248 1.8204659l-8.135855 14.1835065a4.7736627 4.8172081 10.871574 0 0 -.008 4.816134l8.089072 14.156826a4.7736627 4.8172081 10.871574 0 0 4.131445 2.400811l16.224612-.02723a4.7736627 4.8172081 10.871574 0 0 4.139467-2.414851l8.135644-14.183874a4.7736627 4.8172081 10.871574 0 0  .0079-4.816134l-8.088972-14.1568254a4.7736627 4.8172081 10.871574 0 0 -4.131835-2.4010715l-16.224403.027597a4.7736627 4.8172081 10.871574 0 0 -2.28958.5945966z" fill="#ff4141"/><path d="m14.357422 5.3007812a4.7736627 4.8172081 10.871574 0 0 -.728516.3222657 4.7736627 4.8172081 10.871574 0 0 -1.849609 1.8203125l-8.1347658 14.1835936a4.7736627 4.8172081 10.871574 0 0 -.00781 4.814453l8.0878878 14.158203a4.7736627 4.8172081 10.871574 0 0 4.13086 2.400391l16.224609-.02734a4.7736627 4.8172081 10.871574 0 0 3.269531-1.314453z" opacity=".2"/><path d="m33.955078 5.3652344-20.955078 36.2929686s-.13409.207015-.164062.251953a4.7736627 4.8172081 10.871574 0 0 3.019531 1.089844l16.224609-.02734a4.7736627 4.8172081 10.871574 0 0 4.140625-2.414062l8.134766-14.183598a4.7736627 4.8172081 10.871574 0 0  .0078-4.816406l-8.087878-14.1582034a4.7736627 4.8172081 10.871574 0 0 -2.320313-2.0351562z" opacity=".2"/><path d="m3.0039062 24a4.7736627 4.8172081 10.871574 0 0  .6328126 2.441406l8.0878902 14.158203a4.7736627 4.8172081 10.871574 0 0 4.13086 2.400391l16.224609-.02734a4.7736627 4.8172081 10.871574 0 0 4.140625-2.414062l8.134766-14.183598a4.7736627 4.8172081 10.871574 0 0  .640625-2.375z" opacity=".2"/><path d="m24 16c-9 0-16 7-16 9.164062 0 2.835938 7 8.835938 16 8.835938s16-7 16-8.835938c0-2.164062-7-9.164062-16-9.164062z" opacity=".2"/><path d="m24 15c-9 0-16 7-16 9.164062 0 2.835938 7 8.835938 16 8.835938s16-7 16-8.835938c0-2.164062-7-9.164062-16-9.164062z" fill="#fff"/><circle cx="24" cy="24" fill="#1b87e6" r="8"/><circle cx="24" cy="24" fill="#3f3f3f" r="4"/><path d="m32.142578 5-16.224609.0273438a4.7736627 4.8172081 10.871574 0 0 -2.289063.5957031 4.7736627 4.8172081 10.871574 0 0 -1.849609 1.8203125l-8.1347658 14.1835936a4.7736627 4.8172081 10.871574 0 0 -.6152343 2.910156 4.7736627 4.8172081 10.871574 0 1  .6152343-1.910156l8.1347658-14.1835936a4.7736627 4.8172081 10.871574 0 1 1.849609-1.8203125 4.7736627 4.8172081 10.871574 0 1 2.289063-.5957031l16.224609-.0273438a4.7736627 4.8172081 10.871574 0 1 4.132813 2.4003906l8.08789 14.1582034a4.7736627 4.8172081 10.871574 0 1  .607422 1.904297 4.7736627 4.8172081 10.871574 0 0 -.607422-2.904297l-8.08789-14.1582034a4.7736627 4.8172081 10.871574 0 0 -4.132813-2.4003906z" fill="#fff" opacity=".2"/></svg>

<svg xmlns="http://www.w3.org/2000/svg" width="48" height="48" version="1">
 <path style="opacity:0.2" d="M 13.630008,6.6222498 A 4.7736627,4.8172081 10.871574 0 0 11.77976,8.4427157 L 3.643905,22.626222 a 4.7736627,4.8172081 10.871574 0 0 -0.008,4.816134 l 8.089072,14.156826 a 4.7736627,4.8172081 10.871574 0 0 4.131445,2.400811 l 16.224612,-0.02723 a 4.7736627,4.8172081 10.871574 0 0 4.139467,-2.414851 l 8.135644,-14.183874 a 4.7736627,4.8172081 10.871574 0 0 0.0079,-4.816134 L 36.275073,8.4010788 A 4.7736627,4.8172081 10.871574 0 0 32.143238,6.0000073 l -16.224403,0.027597 a 4.7736627,4.8172081 10.871574 0 0 -2.28958,0.5945966 z"/>
 <path style="fill:#ff4141" d="M 13.630008,5.6222496 A 4.7736627,4.8172081 10.871574 0 0 11.77976,7.4427155 L 3.643905,21.626222 a 4.7736627,4.8172081 10.871574 0 0 -0.008,4.816134 l 8.089072,14.156826 a 4.7736627,4.8172081 10.871574 0 0 4.131445,2.400811 l 16.224612,-0.02723 a 4.7736627,4.8172081 10.871574 0 0 4.139467,-2.414851 l 8.135644,-14.183874 a 4.7736627,4.8172081 10.871574 0 0 0.0079,-4.816134 L 36.275073,7.4010786 A 4.7736627,4.8172081 10.871574 0 0 32.143238,5.0000071 l -16.224403,0.027597 a 4.7736627,4.8172081 10.871574 0 0 -2.28958,0.5945966 z"/>
 <path style="opacity:0.2" d="M 14.357422,5.3007812 A 4.7736627,4.8172081 10.871574 0 0 13.628906,5.6230469 4.7736627,4.8172081 10.871574 0 0 11.779297,7.4433594 L 3.6445312,21.626953 a 4.7736627,4.8172081 10.871574 0 0 -0.00781,4.814453 L 11.724609,40.599609 A 4.7736627,4.8172081 10.871574 0 0 15.855469,43 l 16.224609,-0.02734 a 4.7736627,4.8172081 10.871574 0 0 3.269531,-1.314453 L 14.357422,5.3007812 Z"/>
 <path style="opacity:0.2" d="M 33.955078,5.3652344 13,41.658203 c 0,0 -0.13409,0.207015 -0.164062,0.251953 A 4.7736627,4.8172081 10.871574 0 0 15.855469,43 l 16.224609,-0.02734 a 4.7736627,4.8172081 10.871574 0 0 4.140625,-2.414062 L 44.355469,26.375 a 4.7736627,4.8172081 10.871574 0 0 0.0078,-4.816406 L 36.275391,7.4003906 A 4.7736627,4.8172081 10.871574 0 0 33.955078,5.3652344 Z"/>
 <path style="opacity:0.2" d="m 3.0039062,24 a 4.7736627,4.8172081 10.871574 0 0 0.6328126,2.441406 L 11.724609,40.599609 A 4.7736627,4.8172081 10.871574 0 0 15.855469,43 l 16.224609,-0.02734 a 4.7736627,4.8172081 10.871574 0 0 4.140625,-2.414062 L 44.355469,26.375 A 4.7736627,4.8172081 10.871574 0 0 44.996094,24 L 3.0039062,24 Z"/>
 <path style="opacity:0.2" d="M 24,16 C 15,16 8,23 8,25.164062 8,28 15,34 24,34 33,34 40,27 40,25.164062 40,23 33,16 24,16 Z"/>
 <path style="fill:#ffffff" d="M 24,15 C 15,15 8,22 8,24.164062 8,27 15,33 24,33 33,33 40,26 40,24.164062 40,22 33,15 24,15 Z"/>
 <circle style="fill:#1b87e6" cx="24" cy="24" r="8"/>
 <circle style="fill:#3f3f3f" cx="24" cy="24" r="4"/>
 <path style="opacity:0.2;fill:#ffffff" d="M 32.142578,5 15.917969,5.0273438 A 4.7736627,4.8172081 10.871574 0 0 13.628906,5.6230469 4.7736627,4.8172081 10.871574 0 0 11.779297,7.4433594 L 3.6445312,21.626953 A 4.7736627,4.8172081 10.871574 0 0 3.0292969,24.537109 4.7736627,4.8172081 10.871574 0 1 3.6445312,22.626953 L 11.779297,8.4433594 A 4.7736627,4.8172081 10.871574 0 1 13.628906,6.6230469 4.7736627,4.8172081 10.871574 0 1 15.917969,6.0273438 L 32.142578,6 a 4.7736627,4.8172081 10.871574 0 1 4.132813,2.4003906 l 8.08789,14.1582034 a 4.7736627,4.8172081 10.871574 0 1 0.607422,1.904297 4.7736627,4.8172081 10.871574 0 0 -0.607422,-2.904297 L 36.275391,7.4003906 A 4.7736627,4.8172081 10.871574 0 0 32.142578,5 Z"/>
</svg>
